X:7952
T:Jessy,The Flower of Dunblane. BF13.003
M:6/8
L:1/8
Q:80
S:J.Lishman()MS,c1825,Lakes,Browne Coll.
R:Air
O:England
A:Lakes
N:No time signature given.  It is possible the bar line before the note
N:marked with an asterixis  a crochet G!
Z:vmp.Cherri Graebe.
K:D major
|"Qua in ms"d/e/|(fgf) eaf|(dcd) ecd/2B/2|ABG FAd|def e2 d/2e/2|!
fgf ea"g in ms"f|dcd "crots in ms"eBd/c/|ABG FAd|eBc"!" d2:|!
|:d/e/|fde fba|fde fdf|ecd eaf|edB A2 A|!
efe fde|faf "crots in ms"g(ef)|gab afd|eBc dcB|!
ABA FAd|faf gef |"!*" gab afd|eBc d2 :|]
W:Bar8 given as  (e2Bcd) in ms.Bar15 given as (ab a f2d2) in ms.CGP
